X: 2013
T: Yâr Peşinde Koşa Koşa...
C: Zeki Duygulu
O: Turkey
F: http://compmusic.upf.edu/node/140
N: acemkurdi--sarki--sofyan--yar_pesinde--zeki_duygulu
N: makam= acemkurdi
N: form= sarki
N: usul= sofyan = 4/4
M: 4/4
L: 1/16
K: C _B   
Q: 1/4=90
%%MIDI tuningsystem comma53
z2f2 f2e2 e2d2 d2c2  | z2f2 e2d2 c2B2 A2G2  | \
w:   |   | 
z2A2 B2_e2 d2c2 B2A2  | 
w:   | 
G2A4G2 cBAB A4  | z2f2 f2e2 e2d2 d2c2  | \
w:   |   | 
z2f2 e2d2 c2B2 A2G2  | 
w:   | 
z2A2 B2_e2 d2c2 B2A2  | G2A4G2 cBAB A4  | \
w:   |   | 
z2f4f2 f2e2 f4  | 
w:  Yâr  pe şin *  de   | 
e2f2 g2{a}g2 f2e2 d4  | d2e4d2 c2_2/4B2 c4  | \
w:  ko şa  *  *  *  ko *  şa   |  yo rul *  dum    | 
z2f4f2 f2e2 f4  | e2f2 g2{a}g2 f2e2 d4  | 
w:  Yâr  pe şin *  de   |  ko şa  *  *  *  ko *  şa   | 
d2e4d2 c2_2/4B2 c4  | z4 A2B2 c4 d4  | \
w:  yo rul *  dum    |  A kıp  a kıp   | 
c2_e2 d2c2 B2A2 G4  | A2c2 B2A2 A8  | 
w:  bir  *  su  *  gi *  bi   |  du  rul *  *  dum    | 
z4 A2B2 c4 d4  | c2_e2 d2c2 B2A2 G4  | \
w:  A kıp  a kıp   |  bir  *  su  *  gi *  bi   | 
A2c2 B2A2 A8  | z4 f2g2 a4 a4  | 
w:  du  rul *  *  dum    |  Ben_ o  yâ re   | 
g2b2 a2g2 f2e2 d4  | a2g2 f2e2 f8  | \
w:  can  *  e *  vim *  den   |  vu rul *  *  dum    | 
z4 f2g2 a4 a4  | g2b2 a2g2 f2e2 d4  | 
w:  Ben_ o  yâ re   |  can  *  e *  vim *  den   | 
a2g2 f2e2 f8  | z4 e2f2 f2f4e2  | e2e4d2 d4 d2c2  | \
w:  vu rul *  *  dum    |  Ça yır  çi men   |  yaz_ o *  lun ca   | 
c2d2 d2c2 B3A G4  | 
w:  bi çi *  *  lir    | 
z4 A2B2 c4 d4  | c2_e2 d2c2 B2A2 G4  | \
w:  Naz lı  yâr dan   |  a cep  *  *  na *  sıl   | 
A2c2 B2A2 A8  | z4 e2f2 f2f4e2  | 
w:  ge çi *  *  lir    |  Ça yır  çi men   | 
e2e4d2 d4 d2c2  | c2d2 d2c2 B3A G4  | \
w:  yaz_ o *  lun ca   |  bi çi *  *  lir    | 
z4 A2B2 c4 d4  | c2_e2 d2c2 B2A2 G4  | 
w:  Naz lı  yâr dan   |  a cep  *  *  na *  sıl   | 
A2c2 B2A2 A8  | z2f2 f2e2 e2d2 d2c2  | \
w:  ge çi *  *  lir    |   | 
z2f2 e2d2 c2B2 A2G2  | 
w:   | 
z2A2 B2_e2 d2c2 B2A2  | G2A4G2 cBAB A4  | \
w:   |   | 
z2f2 f2e2 e2d2 d2c2  | 
w:   | 
z2f2 e2d2 c2B2 A2G2  | z2A2 B2_e2 d2c2 B2A2  | \
w:   |   | 
G2A4G2 cBAB A4  | 
w:   | 
z2f4f2 f2e2 f4  | e2f2 g2{a}g2 f2e2 d4  | \
w:  Yâr  pe şin *  de   |  ko şa  *  *  *  ko *  şa   | 
d2e4d2 c2_2/4B2 c4  | z2f4f2 f2e2 f4  | 
w:  yo rul *  dum    |  Yâr  pe şin *  de   | 
e2f2 g2{a}g2 f2e2 d4  | d2e4d2 c2_2/4B2 c4  | \
w:  ko şa  *  *  *  ko *  şa   |  yo rul *  dum    | 
z4 A2B2 c4 d4  | c2_e2 d2c2 B2A2 G4  | 
w:  A kıp  a kıp   |  bir  *  su  *  gi *  bi   | 
A2c2 B2A2 A8  | z4 A2B2 c4 d4  | c2_e2 d2c2 B2A2 G4  | \
w:  du  rul *  *  dum    |  A kıp  a kıp   |  bir  *  su  *  gi *  bi   | 
A2c2 B2A2 A8  | 
w:  du  rul *  *  dum    | 
z4 f2g2 a4 a4  | g2b2 a2g2 f2e2 d4  | \
w:  Ben_ o  yâ re   |  can  *  e *  vim *  den   | 
a2g2 f2e2 f8  | z4 f2g2 a4 a4  | 
w:  vu rul *  *  dum    |  Ben_ o  yâ re   | 
g2b2 a2g2 f2e2 d4  | a2g2 f2e2 f8  | \
w:  can  *  e *  vim *  den   |  vu rul *  *  dum    | 
z4 e2f2 f2f4e2  | e2e4d2 d4 d2c2  | 
w:  Ça yır  çi men   |  yaz_ o *  lun ca   | 
c2d2 d2c2 B3A G4  | z4 A2B2 c4 d4  | \
w:  bi çi *  *  lir    |  Naz lı  yâr dan   | 
c2_e2 d2c2 B2A2 G4  | A2c2 B2A2 A8  | 
w:  a cep  *  *  na *  sıl   |  ge çi *  *  lir    | 
z4 e2f2 f2f4e2  | e2e4d2 d4 d2c2  | c2d2 d2c2 B3A G4  | \
w:  Ça yır  çi men   |  yaz_ o *  lun ca   |  bi çi *  *  lir    | 
z4 A2B2 c4 d4  | 
w:  Naz lı  yâr dan   | 
c2_e2 d2c2 B2A2 G4  | A2c2 B2A2 A8  | |


